src/actions/symbolic/xml-cdata-symbolic.svg

<svg width="16" height="16" version="1.1" xmlns="http://www.w3.org/2000/svg">
 <path d="m3 1c-1.108 0-2 0.892-2 2v10c0 1.108 0.892 2 2 2h10c1.108 0 2-0.892 2-2v-10c0-1.108-0.892-2-2-2zm0 1h10c0.554 0 1 0.446 1 1v10c0 0.554-0.446 1-1 1h-10c-0.554 0-1-0.446-1-1v-10c0-0.554 0.446-1 1-1z" fill="#363636"/>
 <path d="m8 4c-1.662 0-3 1.338-3 3v2c0 1.662 1.338 3 3 3h3v-1h-3c-1.108 0-2-0.892-2-2v-2c0-1.108 0.892-2 2-2h3v-1h-3z" fill="#363636" fill-rule="evenodd" stop-color="#000000"/>
</svg>

<svg xmlns="http://www.w3.org/2000/svg" width="16" height="16">
    <path fill="#050505" fill-opacity=".7" d="M3 1c-1.108 0-2 .892-2 2v10c0 1.108.892 2 2 2h10c1.108 0 2-.892 2-2V3c0-1.108-.892-2-2-2zm0 1h10c.554 0 1 .446 1 1v10c0 .554-.446 1-1 1H3c-.554 0-1-.446-1-1V3c0-.554.446-1 1-1z"/>
    <path fill="#050505" fill-opacity=".7" fill-rule="evenodd" d="M8 4C6.338 4 5 5.338 5 7v2c0 1.662 1.338 3 3 3h3v-1H8c-1.108 0-2-.892-2-2V7c0-1.108.892-2 2-2h3V4H8z"/>
</svg>
